X: 5277
T: Broom O' The Cowdenknowes, The
R: reel
M: 4/4
K: Dmajor
A3B A3B|AGFE D3A|d2de (fe) (dc)|(B4 A4)|
zd de f2ef|d2FG A4|GG2G (GA) (BG)|E8||

